X:622
%%etbk:tnset id:361,pos:1,rep:3x,ant:
%%etbk:pldat 2016-08-18T18:43,2016-08-17T16:04,2016-08-16T16:05,2016-08-15T19:11,2016-08-11T18:45,2016-08-10T16:00,2016-08-09T15:46,2016-08-08T18:38,2016-06-09T17:57,2016-06-08T15:10,2016-06-07T15:11,2016-06-04T14:08,2016-06-02T18:01,2016-06-01T15:38,2016-05-31T15:18,2016-05-29T10:57,2016-05-19T18:45,2016-05-18T16:32,2016-05-17T16:05,2016-05-16T14:37,2016-05-14T15:52,2016-05-13T15:13,2016-05-11T15:09,2016-05-09T18:51,2016-03-02T15:27,2016-03-01T18:33,2016-02-29T17:59,2016-02-27T13:00,2016-02-22T17:54,2016-02-04T18:15,2016-02-03T15:19,2016-02-02T15:49,2016-02-01T18:28,2016-01-28T18:26,2016-01-26T15:27,2016-01-24T14:52,2016-01-23T14:55,2016-01-20T15:20,2016-01-17T11:15,2016-01-05T17:09,2016-01-04T18:20,2016-01-03T13:26,2016-01-02T12:54,2015-12-31T13:55,2015-12-28T17:03,2015-11-20T16:12,2015-11-19T18:29,2015-11-18T16:05,2015-11-17T15:57,2015-11-15T14:21,2015-11-14T15:07,2015-11-13T17:46,2015-11-11T16:49,2015-11-10T15:13,2015-11-08T13:24,2015-09-10T16:04,2015-09-09T16:19,2015-09-08T18:44,2015-09-03T15:54,2015-09-02T15:52,2015-09-01T15:56,2015-08-31T18:25,2015-08-30T14:17,2015-08-28T19:25,2015-08-27T18:20,2015-08-26T15:31,2015-08-06T17:06,2015-08-05T15:39,2015-08-04T15:51,2015-08-03T17:53,2015-08-01T15:31,2015-07-29T16:22,2015-07-27T18:35,2015-07-24T17:34,2015-07-22T15:55,2015-07-20T18:34,2015-06-26T16:58,2015-06-23T18:20,2015-06-18T18:27,2015-06-17T16:15,2015-06-16T15:59,2015-05-28T18:51,2015-05-27T18:26,2015-05-07T18:41,2015-04-16T18:46,2015-04-15T16:13,2015-04-13T17:54,2015-04-12T10:31,2015-04-11T14:09,2015-04-07T18:31,2015-03-19T18:36,2015-03-18T16:39,2015-03-16T18:54,2015-03-15T14:48,2015-03-12T18:15,2015-03-10T17:17,2015-03-09T19:24,2015-03-05T18:28,2015-03-04T16:19,2015-02-22T15:11,2015-02-21T16:32,2015-02-19T18:40,2015-02-18T15:39,2015-02-17T16:54,2015-02-16T19:32,2015-02-14T14:07,2015-02-13T18:19,2015-02-12T18:48,2015-02-10T17:14,2015-02-06T18:32,2015-02-04T15:25,2015-02-03T16:14,2015-02-01T14:40,2015-01-29T17:58,2015-01-28T16:01,2015-01-27T16:53,2015-01-25T15:35,2015-01-24T13:00,2015-01-22T18:38,2015-01-21T17:09,2015-01-20T17:11,2015-01-19T18:04,2015-01-14T16:35,2015-01-13T15:48,2015-01-12T17:55,2015-01-10T15:31,2015-01-08T18:06,2015-01-07T16:57,2015-01-06T19:10,2015-01-05T19:26,2014-12-31T14:37,2014-12-30T17:10,2014-12-29T16:08,2014-12-28T13:07,2014-12-27T14:06,2014-12-26T11:47,2014-12-20T13:44,2014-12-17T19:15,2014-12-15T15:16,2014-12-14T15:02,2014-12-13T15:50,2014-12-10T15:26,2014-12-09T16:44,2014-12-08T17:58,2014-12-06T15:22,2014-12-04T18:03,2014-12-03T15:29,2014-12-02T16:32,2014-12-01T18:15,2014-11-30T14:23
T: The One That Was Lost (Edor)
Z: Piano Box Version by Martin Fleischmann
H: Created 2014-11-30 /  Last Modified 2014-12-03
R: jig
M: 6/8
L: 1/8
K: Edor
|: f | !4!edB B!1!A!2!F | !1!E2 D EFA | !5!BAF D2 F |!4!AF!1!A !3!def |
edB BAF | E2 D !1!E!2!F!3!A | !5!d!2!f!5!b afd | efe e2 :|
!1!d | !1!B!2!e!2!e efa | !5!baf e!1!d!2!B | !4!~d3 Bdd |AFA !4!dc!4!d |
!2!B!5!e!2!e e!3!f!4!a | !5!baf !2!e!1!d!2!B | !1!dfb afd |efe e2 !1!d |
!1!B!2!e!2!e efa | baf edB | ~d3 Bdd |AFA !3!d!4!e!3!f |
!4!g2 e fed | BeB dBA | dfb afd |efe e2 ||
|"var"AAA !2!Bc!4!d |!5!e2!2!e e!3!f!4!a ||
|"var"!4!g2 e fed | BeB dB!4!d | !1!dfb afd |efe e2 ||
 |"var" E2 !4!B !1!E!2!F!3!A | !5!d!2!f!5!b afd |


